X:1
T:On the Rock of Ages
T:On the Rock of Ages
T:Frank Grammer
T:Austin Taylor, 1910, alt.
T:Public Domain Courtesy of the Cyber Hymnal™
T:Public Domain Courtesy of the Cyber Hymnal™
C:Frank Grammer
Z:Public Domain
Z:Courtesy of the Cyber Hymnal™
%%score ( 1 2 ) ( 3 4 )
L:1/8
Q:1/4=100
M:4/4
K:Ab
V:1 treble 
V:2 treble 
V:3 bass 
V:4 bass 
V:1
 [CE]>[CE] | [CA]>[CA] [DB]>[DB] [Ec]2 [Ed]2 | [Ae]4 [Ec]2 [CE]>[CE] | %3
w: 1.~Are you|build- ing on the Rock of|Ag- es? Are you|
w: 2.~Are you|build- ing for the life e-|ter- nal? Are you|
w: 3.~Are you|build- ing on the Rock of|Ag- es? Are you|
w: 4.~Are you|build- ing for a home in|Hea- ven? Are you|
 [EA]>[EA] [EA]>[EA] [DB]2 [DG]2 | [CA]6 [CE]>[CE] | [CA]>[CA] [DB]>[DB] [Ec]2 [Ed]2 | %6
w: build- ing on the sink- ing|sand? Are you|build- ing on a sure foun-|
w: firm- ly set on Christ, the|Rock? Is your|hope on sol- id ground a-|
w: build- ing for e- ter- ni-|ty? Are you|go- ing to the home su-|
w: care- ful how you lay each|stone? Is your|hope and faith in God un-|
 [Ae]4 [Ec]2 [CE]>[CE] | [EA]>[EA] [EA]>[EA] [DB]2 [DG]2 | [CA]6 ||"^Refrain" [CA]>[Ec] | e4 c4 | %11
w: da- tion? Will your|house the rain and tem- pests|stand?|||
w: bid- ing? Can you|stand the aw- ful judg- ment|shock?|Are you|build- ing,|
w: per- nal? With the|an- gels then to ev- er|be?|||
w: chang- ing? Have you|built your house on Christ a-|lone?|||
 [FB]>[FA] [EG]>[DF] [CE]2 [CE]>[CE] | [EA]>[EA] [EB]>[EB] [Ec]2 [Ed]2 | [Ec]4 [EB]2 [Ec]>[Fd] | %14
w: |||
w: build- ing on the Rock? Are you|build- ing on the Rock of|Ag- es? When you|
w: |||
w: |||
 [Ec]>[DB] [CA]>[Ec] [Ae]2 [EA]>[EA] | [FB]>[FA] [EG]>[DF] [CE]2 [CE]>[CE] | %16
w: ||
w: an- swer judg- ment’s call, Will your|build- ing stand or fall? Are you|
w: ||
w: ||
 [EA]>[EA] [FB]>[FB] [Ec]2 [EA]2 | [EB]4 [EA]2 |] %18
w: ||
w: build- ing on the Rock of|Ag- es?|
w: ||
w: ||
V:2
 x2 | x8 | x8 | x8 | x8 | x8 | x8 | x8 | x6 || x2 | (A2 A2) (E2 E2) | x8 | x8 | x8 | x8 | x8 | x8 | %17
 x6 |] %18
V:3
 [A,,A,]>[A,,A,] | [A,,E,]>[A,,E,] [A,,E,]>[A,,E,] [A,,A,]2 [A,,B,]2 | %2
w: ||
 [A,,C]4 [A,,A,]2 [A,,A,]>[A,,A,] | [A,,C]>[A,,C] [C,A,]>[C,A,] [E,G,]2 [E,B,]2 | %4
w: ||
 [A,,A,]6 [A,,A,]>[A,,A,] | [A,,E,]>[A,,E,] [A,,E,]>[A,,E,] [A,,A,]2 [A,,B,]2 | %6
w: ||
 [A,,C]4 [A,,A,]2 [A,,A,]>[A,,A,] | [A,,C]>[A,,C] [C,A,]>[C,A,] [E,G,]2 [E,B,]2 | [A,,A,]6 || %9
w: |||
 A,>A, | [A,C]2 [A,C]2 [A,,A,]2 [A,,A,]2 | [D,A,]>[D,A,] [D,A,]>[D,A,] [A,,A,]2 [A,,A,]>[A,,A,] | %12
w: Are you|build- ing, build- ing||
 [C,A,]>[C,A,] [E,G,]>[E,G,] A,2 [G,B,]2 | A,4 [E,G,]2 A,>A, | A,>A, A,>A, [A,C]2 [C,A,]>[C,A,] | %15
w: |||
 [D,A,]>[D,A,] [D,A,]>[F,A,] A,2 [A,,A,]>[A,,A,] | [C,A,]>[C,A,] [D,A,]>[D,A,] [E,A,]2 [E,C]2 | %17
w: ||
 [E,D]4 [A,,C]2 |] %18
w: |
V:4
 x2 | x8 | x8 | x8 | x8 | x8 | x8 | x8 | x6 || A,>A, | x8 | x8 | x4 A,2 x2 | A,4 A,>A, x2 | %14
 A,>A, A,>A, x4 | x4 A,2 x2 | x8 | x6 |] %18

